X: 23
T:The Moon and Seven Stars
M:6/8
K:D
L:1/8
A | "D" d2 A AGF | "G" GAB "D" A2 A | "G" Bcd efg | "A" fed cBA | "D" d2 A AGF | "G" GAB "D" A2 A |
"G" Bcd efg |1 "A" Adc "D" d2 :|2 "A" Adc "D" d2 f || "A" e2 A ABA | efg "D" f3 | "A" efg "D" fed | "E" cdB "A" A2 A |
"G" BGB "D" A2 A | "G" BGB "D" A2 A | "G" Bcd efg |1 "A" Adc "D" d2 :|2 "A" Adc "D" d2 |]

